X: 21650
T: Killeigh, The
R: hornpipe
M: 4/4
K: Gmajor
(3DEF|:G2 (3AGF G2 Bd|g2 eg dGBd|eGBd BAGB|(3ABA (3GFE D2 (3DEF|
G2 (3AGF G2 Bd|g2 eg dGBd|EGBd BAGE|1 G2 (3AGF GDEF:|2 G2 (3AGF G2 Bc||
dGBd eGBd|g2 bg dGBd|cece BdBG|(3ABA (3GFE D2 Bc|
dGBd eGBd|g2 bg dGBd|EGBd BAGE|1 G2 (3AGF G2 Bc:|2 G2 (3AGF GDEF||

